X:1
T:Benedictus qui venit
T:José de Torres y Martinez Bravo [1665-1738]
T:From "Arte de canto llano" by the composer, 1734 edition, page 235
T:Benedictus qui venit
T:Copyright © 
T:Copyright © 
C:José de Torres y Martinez Bravo [1665-1738]
Z:From "Arte de canto llano"
Z:by the composer, 1734 edition, page 235
Z:Copyright ©
%%score [ 1 2 3 ]
L:1/8
M:2/2
K:C
V:1 treble nm="P1" snm="S. "
V:2 treble nm="P2" snm="A. "
V:3 treble-8 transpose=-12 nm="P3" snm="T."
V:1
 z8 | z8 | z8 | z8 | z8 | D8- | D4 E4 | F4 E2 D2 | C6 D2 | E2 F2 G4- | G4 F4- | F4 E4 | D6 E2 | %13
w: |||||Be-|* ne-|dic- tus qui|ve- *|||||
 F2 G2 A4- | A4 ^G2 ^F2 | ^G8 | z8 | z4 E4 | A6 G2 | F8 | _B8- | B4 A4- | A4 G4- | G4 F4 | E8 | %25
w: ||nit||in|no- mi-|ne|Do-||||mi-|
 F8 | z8 | z8 | z8 | z8 | z4 A4 | B4 c4 | A4 B4 | c4 d4 | e4 f4- | f4 d4- | d4 d4 | e4 d4- | %38
w: ni,|||||ho-|san- na|in ex-|ce- *|||||
 d4 c4 | B8 | c4 A4 | G8 | F4 F4 | G4 A4 | F4 G4 | F8 | E8 | F4 G4 | E4 F4 | E4 E4 | F4 G4- | %51
w: |lsis,|ho- san-||na, ho-|san- na|in ex-|cel-||||sis, in|ex- cel-|
 G4 F4 | E8 | F16 |] %54
w: ||sis.|
V:2
 z8 | A,8- | A,4 B,4 | C4 B,2 A,2 | G,6 A,2 | B,2 C2 D4- | D4 C4- | C4 B,4 | A,6 B,2 | C2 D2 E4- | %10
w: |Be-|* ne-|dic- tus qui|ve- *||||||
 E4 D4- | D4 C4- | C4 B,2 C2 | D2 C2 B,2 A,2 | B,8 | z4 B,4 | E6 D2 | C8 | G6 E2 | D8 | F6 F2 | %21
w: ||||nit|in|no- mi-|ne|Do- *|||
 E2 D2 F2 E2 | D2 C2 E2 D2 | ^C2 B,2 D4- | D4 ^C4 | D8 | z4 A,4 | B,4 C4 | A,4 B,4 | C4 D4 | %30
w: |||* mi-|ni,|ho-|san- na|in ex-|cel- *|
 E4 F4- | F4 E4 | F8 | E4 F4 | G4 A4 | G8 | F8 | E4 ^F4 | ^G4 A4- | A4 ^G4 | A4 F4- | F4 E4- | %42
w: |* sis,|in|ex- cel-|||||||cis, ho-|san- na|
 E4 D4 | E4 F4 | D4 E4- | E4 D4- | D4 C4 | D4 E4 | ^C4 D4- | D4 C4 | D4 E2 D2 | C2 B,A, D4- | %52
w: * in|ex- cel-|||||||||
 D4 ^C4 | D16 |] %54
w: |sis.|
V:3
 D8- | D4 E4 | F4 E2 D2 | C6 D2 | E2 F2 G4- | G4 F4- | F4 E4 | D6 E2 | F2 G2 A4- | A4 G4 | _B8 | %11
w: Be-|* ne-|dic- * *|||* tus,|qui ve-|||||
 A6 G2 | ^F4 G4 | D2 E2 ^F4 | E8- | E8 | z4 E4 | A6 G2 | F8 | _B6 A2 | G2 A2 _B2 G2 | c8 | _B8 | %23
w: |||nit,||in|no- mi-|ne|Do- *|||mi-|
 A8- | A8 | z4 D4 | E4 F4 | D4 E4 | F4 G4 | A4 _B4- | B4 A4 | G8 | F4 G4 | A8 | z4 A4 | B4 c4 | %36
w: ni,||ho-|san- na|in ex-|cel- *|||||sis,|ho-|san- na|
 A4 B4 | c4 d4 | e8- | e8 | A4 A4 | B4 c4 | A4 _B4- | B4 A4- | A4 G4 | A4 _B4 | G4 A4- | A4 G4- | %48
w: in ex-|cel- *|sis,|_|ho- san-|na in|ex- cel-||||||
 G4 F4 | G4 A4- | A4 G4 | A8- | A8 | D16 |] %54
w: |||||sis.|

